X: 1
T: Class composition Reel
R: Reel
M: 4/4
L: 1/8
K: Bmin
C: Sean Wahl
|: B2fB cdef | B2af edcd | c2Af edcB | G2Ed cBAc | 
B2fB cdef | BAaf edcB | GEdc FDdB | cfec dcBA :| 
|: FBBc cddF | GBBc cddG | Accd edce | fgfe dcBA | 
|1 FBBc cddF | GBcd edcB | cAEA cdcB | GEdB cBAE :| 
|2 FBBc cdec | BAaf edcB | GEdc FDdB | cfec dBBc ||
|: dBfB dBba | cAeA cAgf | eGBe GBed | cAEC GFBc | 
|1 dBfB dBba | cAeA fAec | BGeG fGeB | fgfe dcBc :| 
|2 dBfB dBba | cAaf edcB |  GEdc FDdB | cfec dBB2 ||


